DuckDuckGo/Assets.xcassets/BookmarkFavoriteIcon.imageset/Favorite-24.svg

<svg width="24" height="24" viewBox="0 0 24 24" fill="none" xmlns="http://www.w3.org/2000/svg">
<path fill-rule="evenodd" clip-rule="evenodd" d="M9.71326 3.3789C10.6482 1.48194 13.353 1.48193 14.2879 3.3789L15.7818 6.41022C15.8619 6.57266 16.0168 6.68528 16.196 6.71135L19.5401 7.19796C21.6306 7.50215 22.4658 10.0706 20.9542 11.5462L18.5315 13.9109C18.4021 14.0372 18.3431 14.2191 18.3736 14.3973L18.9451 17.7342C19.302 19.8178 17.1144 21.4059 15.2438 20.4211L12.2568 18.8485C12.0964 18.7641 11.9047 18.7641 11.7443 18.8485L8.7573 20.4211C6.88676 21.4059 4.69911 19.8178 5.05598 17.7342L5.62751 14.3973C5.65804 14.2191 5.59899 14.0372 5.46958 13.9109L3.04698 11.5462C1.53529 10.0706 2.37053 7.50215 4.46099 7.19796L7.80515 6.71135C7.98436 6.68528 8.13924 6.57266 8.2193 6.41022L9.71326 3.3789ZM12.4939 4.26304C12.2923 3.85389 11.7089 3.85389 11.5072 4.26304L10.0133 7.29436C9.64209 8.04747 8.924 8.56961 8.09314 8.69051L4.74898 9.17712C4.2981 9.24273 4.11794 9.79671 4.444 10.115L6.8666 12.4797C7.46659 13.0654 7.74035 13.9086 7.5988 14.735L7.02728 18.0719C6.95031 18.5213 7.42215 18.8638 7.8256 18.6514L10.8127 17.0788C11.5562 16.6874 12.4449 16.6874 13.1885 17.0788L16.1755 18.6514C16.579 18.8638 17.0508 18.5213 16.9739 18.0719L16.4023 14.735C16.2608 13.9086 16.5345 13.0654 17.1345 12.4797L19.5571 10.115C19.8832 9.79671 19.703 9.24273 19.2522 9.17712L15.908 8.69051C15.0771 8.56961 14.359 8.04747 13.9879 7.29436L12.4939 4.26304Z" fill="black" fill-opacity="0.84"/>
</svg>

<svg viewBox="0 0 24 24" fill="none" xmlns="http://www.w3.org/2000/svg">
  <path fill-rule="evenodd" clip-rule="evenodd" d="M9.713 3.379c.935-1.897 3.64-1.897 4.574 0l1.494 3.031c.08.163.235.275.414.301l3.345.487c2.09.304 2.925 2.873 1.413 4.348l-2.422 2.365c-.13.126-.188.308-.158.486l.572 3.337c.356 2.084-1.831 3.672-3.702 2.687l-2.987-1.572c-.16-.085-.352-.085-.512 0L8.757 20.42c-1.87.985-4.058-.603-3.702-2.687l.572-3.337c.03-.178-.029-.36-.158-.486l-2.423-2.365C1.535 10.071 2.37 7.502 4.46 7.198l3.345-.487c.179-.026.334-.138.414-.3l1.494-3.032zm2.78.884c-.201-.41-.785-.41-.986 0l-1.494 3.031c-.372.753-1.09 1.276-1.92 1.397l-3.345.486c-.45.066-.63.62-.305.938l2.423 2.365c.6.585.874 1.429.732 2.255l-.571 3.337c-.077.45.395.792.798.58l2.987-1.573c.744-.392 1.632-.392 2.376 0l2.987 1.572c.403.213.875-.13.798-.58l-.571-3.336c-.142-.826.132-1.67.732-2.255l2.422-2.365c.327-.318.146-.872-.305-.938l-3.344-.486c-.83-.121-1.549-.644-1.92-1.397l-1.494-3.031z" fill="#000"/>
</svg>
